64x64/apps/hedgewars.svg

<svg xmlns="http://www.w3.org/2000/svg" width="64" height="64" version="1">
 <path style="opacity:0.2" d="M 22.098,49 C 22.05,49.33 22,49.658 22,50 c 0,3.878 3.122,7 7,7 3.878,0 7,-3.122 7,-7 0,-0.342 -0.05,-0.67 -0.098,-1 -0.486,3.396 -3.366,6 -6.902,6 -3.536,0 -6.416,-2.604 -6.902,-6 z"/>
 <path style="opacity:0.2" d="M 40.098,47 C 40.05,47.33 40,47.658 40,48 c 0,3.878 3.122,7 7,7 3.878,0 7,-3.122 7,-7 0,-0.342 -0.05,-0.67 -0.098,-1 -0.486,3.396 -3.366,6 -6.902,6 -3.536,0 -6.416,-2.604 -6.902,-6 z"/>
 <rect style="fill:#df82d9" width="14" height="14" x="-54" y="-54" rx="7" ry="7" transform="matrix(0,-1,-1,0,0,0)"/>
 <path style="opacity:0.2" d="M 22.156,36.148 9.375,36.918 8,39 23.274,38.082 22.156,36.148 Z"/>
 <path style="fill:#72acef" d="M 8,38 16.4298,25.2324 23.272,37.0832 Z"/>
 <path style="opacity:0.1;fill:#f4f4f7" d="M 16.429688 25.234375 L 8 38 L 8.6875 37.958984 L 16.429688 26.234375 L 22.714844 37.115234 L 23.273438 37.082031 L 16.429688 25.234375 z"/>
 <path style="opacity:0.2" d="M 8,27 6,28 20,35 20,33 8,27 Z"/>
 <path style="fill:#4c95eb" d="m 6,27 14,-7 0,14 z"/>
 <path style="opacity:0.1;fill:#f4f4f7" d="M 20 20 L 6 27 L 7 27.5 L 20 21 L 20 20 z"/>
 <path style="opacity:0.2" d="M 22.988,15.7812 22.422,15.8984 19.4454,27 9.832,18.4726 8,18.8476 19.4454,29 22.988,15.7812 Z"/>
 <path style="fill:#3a8ae9" d="M 8,17.8492 22.988,14.782 19.447,28 Z"/>
 <path style="opacity:0.1;fill:#f4f4f7" d="M 22.988281 14.78125 L 8 17.847656 L 8.9160156 18.660156 L 22.705078 15.839844 L 22.988281 14.78125 z"/>
 <path style="opacity:0.2" d="M 14,10.2344 22.43,23 c 8.5328,-13.6368 7.1804,-14.789 0,-2 L 15.375,10.3164 Z"/>
 <path style="fill:#3074c3" d="M 14,9.2324 29.272,10.1492 22.43,22 Z"/>
 <path style="opacity:0.1;fill:#f4f4f7" d="M 14 9.234375 L 14.6875 10.275391 L 28.714844 11.115234 L 29.273438 10.148438 L 14 9.234375 z"/>
 <path style="opacity:0.2" d="M 18.0508,28 C 18.0344,28.334 18,28.662 18,29 18,40.08 26.92,49 38,49 49.08,49 58,40.08 58,29 58,28.662 57.966,28.334 57.95,28 57.428,38.608 48.742,47 38,47 27.258,47 18.5718,38.608 18.0508,28 Z"/>
 <rect style="fill:#d761cf" width="40" height="40" x="-48" y="-58" rx="20" ry="20" transform="matrix(0,-1,-1,0,0,0)"/>
 <g style="opacity:0.2" transform="matrix(1.33334,0,0,1.27272,8.6666,-1.36344)">
  <ellipse cx="26" cy="22" rx="4" ry="5"/>
  <ellipse cx="30" cy="21" rx="4" ry="5"/>
 </g>
 <rect style="fill:#df82d9" width="14" height="14" x="-56" y="-36" rx="7" ry="7" transform="matrix(0,-1,-1,0,0,0)"/>
 <g style="fill:#f4f4f7" transform="matrix(1.33334,0,0,1.27272,8.6666,-2.3636)">
  <ellipse cx="26" cy="22" rx="4" ry="5"/>
  <ellipse cx="30" cy="21" rx="4" ry="5"/>
 </g>
 <ellipse style="fill:#1b1b1b" cx="45.5" cy="26" rx="1.5" ry="2"/>
 <path style="opacity:0.6;fill-rule:evenodd" d="m 50.598,36 c -2.1846,0.5246 -3.5292,2.2854 -5.6848,2.7626 -1.55142,0.30192 -3.5934,-0.97948 -5.0466,-0.26364 -0.81314,0.40054 -2.9228,1.4576 -1.22092,2.14 0,0 1.00376,0.40464 2.2678,0.76656 1.26404,0.36194 2.7302,0.77398 4.2788,0.51182 1.75102,-0.29646 3.1612,-1.3102 4.356,-2.2024 1.19484,-0.89222 2.08,-1.72998 2.08,-1.72998 0.824,-0.758 0.192,-1.976 -1.03,-1.986 z"/>
 <ellipse style="fill:#1b1b1b" cx="51.5" cy="24" rx="1.5" ry="2"/>
 <path style="opacity:0.1;fill:#f4f4f7" d="M 38 8 C 26.92 8 18 16.92 18 28 C 18 28.11023 18.010125 28.217514 18.015625 28.326172 C 18.369689 17.561574 27.146235 9 38 9 C 48.853765 9 57.630311 17.561574 57.984375 28.326172 C 57.989804 28.217514 58 28.11023 58 28 C 58 16.92 49.08 8 38 8 z"/>
 <path style="opacity:0.1;fill:#f4f4f7" d="m 29,42 c -3.878,0 -7,3.122 -7,7 0,0.342 0.05,0.67 0.098,1 0.486,-3.396 3.366,-6 6.902,-6 3.536,0 6.416,2.604 6.902,6 C 35.95,49.67 36,49.342 36,49 36,45.122 32.878,42 29,42 Z"/>
</svg>

<svg xmlns="http://www.w3.org/2000/svg" width="64" height="64" version="1"><path style="opacity:.2" d="M22.098 49c-.048.33-.098.658-.098 1 0 3.878 3.122 7 7 7s7-3.122 7-7c0-.342-.05-.67-.098-1-.486 3.396-3.366 6-6.902 6s-6.416-2.604-6.902-6zM40.098 47c-.048.33-.098.658-.098 1 0 3.878 3.122 7 7 7s7-3.122 7-7c0-.342-.05-.67-.098-1-.486 3.396-3.366 6-6.902 6s-6.416-2.604-6.902-6z"/><rect style="fill:#df82d9" width="14" height="14" x="-54" y="-54" rx="7" ry="7" transform="matrix(0 -1 -1 0 0 0)"/><path style="opacity:.2" d="m22.156 36.148-12.781.77L8 39l15.274-.918-1.118-1.934z"/><path style="fill:#72acef" d="m8 38 8.43-12.768 6.842 11.851z"/><path style="opacity:.1;fill:#f4f4f7" d="M16.43 25.234 8 38l.688-.041 7.742-11.725 6.285 10.881.558-.033-6.843-11.848z"/><path style="opacity:.2" d="m8 27-2 1 14 7v-2L8 27z"/><path style="fill:#4c95eb" d="m6 27 14-7v14z"/><path style="opacity:.1;fill:#f4f4f7" d="M20 20 6 27l1 .5L20 21v-1z"/><path style="opacity:.2" d="m22.988 15.781-.566.117L19.445 27l-9.613-8.527L8 18.848 19.445 29l3.543-13.219z"/><path style="fill:#3a8ae9" d="m8 17.85 14.988-3.068L19.447 28z"/><path style="opacity:.1;fill:#f4f4f7" d="M22.988 14.781 8 17.848l.916.812 13.79-2.82.282-1.059z"/><path style="opacity:.2" d="M14 10.234 22.43 23c8.533-13.637 7.18-14.789 0-2l-7.055-10.684z"/><path style="fill:#3074c3" d="m14 9.232 15.272.917L22.43 22z"/><path style="opacity:.1;fill:#f4f4f7" d="m14 9.234.688 1.041 14.027.84.558-.967L14 9.234z"/><path style="opacity:.2" d="M18.05 28c-.016.334-.05.662-.05 1 0 11.08 8.92 20 20 20s20-8.92 20-20c0-.338-.034-.666-.05-1-.522 10.608-9.208 19-19.95 19-10.742 0-19.428-8.392-19.95-19z"/><rect style="fill:#d761cf" width="40" height="40" x="-48" y="-58" rx="20" ry="20" transform="matrix(0 -1 -1 0 0 0)"/><g style="opacity:.2" transform="matrix(1.33334 0 0 1.27272 8.667 -1.363)"><ellipse cx="26" cy="22" rx="4" ry="5"/><ellipse cx="30" cy="21" rx="4" ry="5"/></g><rect style="fill:#df82d9" width="14" height="14" x="-56" y="-36" rx="7" ry="7" transform="matrix(0 -1 -1 0 0 0)"/><g style="fill:#f4f4f7" transform="matrix(1.33334 0 0 1.27272 8.667 -2.364)"><ellipse cx="26" cy="22" rx="4" ry="5"/><ellipse cx="30" cy="21" rx="4" ry="5"/></g><ellipse style="fill:#1b1b1b" cx="45.5" cy="26" rx="1.5" ry="2"/><path style="opacity:.6;fill-rule:evenodd" d="M50.598 36c-2.185.525-3.53 2.285-5.685 2.763-1.551.302-3.593-.98-5.046-.264-.814.4-2.923 1.458-1.221 2.14 0 0 1.003.405 2.267.767 1.265.361 2.73.773 4.28.511 1.75-.296 3.16-1.31 4.355-2.202 1.195-.892 2.08-1.73 2.08-1.73.824-.758.192-1.976-1.03-1.986z"/><ellipse style="fill:#1b1b1b" cx="51.5" cy="24" rx="1.5" ry="2"/><path style="opacity:.1;fill:#f4f4f7" d="M38 8c-11.08 0-20 8.92-20 20 0 .11.01.218.016.326A19.952 19.952 0 0 1 38 9a19.952 19.952 0 0 1 19.984 19.326c.006-.108.016-.216.016-.326 0-11.08-8.92-20-20-20zM29 42c-3.878 0-7 3.122-7 7 0 .342.05.67.098 1 .486-3.396 3.366-6 6.902-6s6.416 2.604 6.902 6c.048-.33.098-.658.098-1 0-3.878-3.122-7-7-7z"/></svg>
